public/work/imported/logos/instrumental.svg

<svg xmlns="http://www.w3.org/2000/svg" viewBox="38.47 439.13 963.39 160.42"><path fill="#0a0a0a" fill-rule="evenodd" d="m186.719 449.284-7.781 7.068-7.864-4.19c-11.971-6.378-20.895-8.401-37.074-8.401-23.559 0-38.679 5.946-54.01 21.239-14.49 14.454-20.776 28.492-21.717 48.5-.832 17.68 2.264 32.366 9.276 44.012 3.951 6.561 4.278 5.521-4.763 15.151-3.182 3.39-5.786 6.551-5.786 7.024s3.603 4.442 8.008 8.821l8.007 7.96 7.566-7.565 7.566-7.566 9.677 4.846c13.93 6.976 19.879 8.314 36.676 8.247 12.443-.05 14.89-.355 22-2.738 13.025-4.366 21.957-9.921 31.664-19.691 7.478-7.527 9.348-10.144 13.659-19.111 2.747-5.715 5.598-12.865 6.336-15.89 1.981-8.123 1.669-29.891-.543-37.942-2.052-7.469-6.55-17.752-9.697-22.172l-2.187-3.072 7.858-7.905c7.746-7.791 7.831-7.931 5.884-9.728a3553 3553 0 0 1-8.474-7.894l-6.5-6.07zm-69.219 1.689c-3.85 1.024-8.748 2.606-10.885 3.515-12.945 5.505-28.339 19.75-34.961 32.351-10.435 19.858-10.26 43.657.472 64.286l4.189 8.052 48.343-48.335C151.246 484.258 173 462.219 173 461.865c0-1.465-16.492-9.073-23.623-10.897-9.809-2.508-22.439-2.506-31.877.005m818.212 26.649c-.392.391-.712 20.211-.712 44.045V565h4.809c8.706 0 8.192 3.129 7.395-45l-.704-42.5-5.038-.295c-2.772-.162-5.359.025-5.75.417m-793.53 49.69c-37.431 37.442-48.02 48.57-47 49.394 3.164 2.552 16.28 8.415 22.977 10.271 8.93 2.474 21.579 2.66 30.197.442 14.523-3.738 30.174-13.554 39.44-24.735 5.188-6.261 11.617-18.986 13.733-27.184 2.483-9.614 2.894-20.939 1.073-29.5-1.467-6.894-7.489-21.056-10.741-25.26-1.236-1.598-5.811 2.692-49.679 46.572M264 522.548v42.547l6.25-.297 6.25-.298.261-42.25.261-42.25H264zm164.975-30.983c-.536 1.411-.978 3.548-.981 4.75-.01 3.951-2.147 10.128-4.654 13.449l-2.463 3.264 2.058 2.617c3.087 3.924 4.177 9.326 5.038 24.964.862 15.665 2.486 20.459 8.039 23.739 8.653 5.112 22.057 1.209 19.423-5.656-.335-.874-2.933-2.329-5.772-3.232-2.84-.904-6.175-2.752-7.413-4.108-2.114-2.314-2.25-3.33-2.25-16.783V520.25l3.125-.625c1.719-.344 4.628-.625 6.465-.625 3.665 0 5.41-2.056 5.41-6.375 0-3.194-.572-3.506-7.813-4.263l-5.982-.626-.684-6.388c-.503-4.692-1.351-7.18-3.192-9.368-3.209-3.815-6.99-4.002-8.354-.415m401.804.394c-1.944 1.529-2.618 3.189-3.069 7.56-.405 3.93-1.551 7.116-3.842 10.686l-3.263 5.086 3.697 3.105L828 521.5l.01 14.5c.009 13.142.23 14.968 2.367 19.5 3.563 7.554 6.517 9.792 13.6 10.305 3.273.236 7.117.137 8.542-.221 2.336-.586 2.562-1.059 2.287-4.768-.292-3.932-.509-4.179-4.806-5.475-8.234-2.485-8.187-2.382-9.026-19.553-.41-8.409-.648-15.399-.529-15.536.119-.136 3.014-.54 6.432-.897 4.685-.49 6.574-1.161 7.669-2.725 3.393-4.843 1.25-7.353-7.173-8.404l-5.873-.733-.7-6.346c-1.138-10.311-4.581-13.467-10.021-9.188m-508.061 16.078c-2.081.52-5.118 1.636-6.75 2.48-2.677 1.384-3.268 1.379-6.024-.046-1.777-.919-4.812-1.453-7.25-1.276l-4.194.305-.267 26.931c-.206 20.878.018 27.111 1 27.734 1.628 1.034 9.499 1.078 10.129.058.265-.428.808-8.342 1.207-17.587.832-19.286 2.209-23.678 8.47-27.031 4.831-2.586 12.176-1.544 15.988 2.269 2.701 2.7 2.703 2.713 3.441 22.914l.738 20.212h4.315c7.878 0 7.482 1.11 7.457-20.857-.02-17.606-.233-20.11-2.062-24.143-2.35-5.184-5.283-8.601-9.08-10.576-3.541-1.843-12.416-2.561-17.118-1.387m56.919.367c-7.953 2.96-13.577 11.77-12.201 19.109 1.224 6.52 6.729 10.714 19.69 14.999 6.256 2.069 11.547 3.91 11.759 4.092.211.183-.19 1.718-.891 3.411-2.581 6.231-9.937 7.364-18.112 2.79-3.461-1.937-3.771-1.952-7.172-.338-1.956.928-3.825 2.391-4.155 3.251-.903 2.353 1.963 5.985 6.71 8.502 6.018 3.191 18.431 3.202 24.427.022 5.351-2.838 9.341-8.072 10.022-13.144.726-5.416-.19-8.432-3.819-12.565-2.512-2.861-4.874-4.058-12.892-6.532-11.505-3.55-14.783-5.676-13.229-8.579.573-1.069 1.912-2.733 2.977-3.696 1.849-1.674 2.331-1.638 10.837.827l8.901 2.58 2.255-2.622c2.834-3.294 2.832-4.621-.008-7.289-5.353-5.029-18.007-7.458-25.099-4.818m225.1.026c-2.07.739-4.761 2.006-5.981 2.816-1.981 1.315-2.487 1.285-4.737-.283-1.385-.966-3.89-1.998-5.566-2.294-5.946-1.049-5.913-1.19-6.307 27.136l-.36 25.882 2.799 2.201c3.772 2.967 6.539 2.364 8.663-1.888 1.428-2.858 1.749-6.213 1.75-18.3.002-15.807.536-18.075 5.309-22.532 3.668-3.426 9.214-3.796 14.693-.98 4.418 2.27 4.512 2.421 5.141 8.312.353 3.3.691 11.527.75 18.282.133 14.968 1.456 19.218 5.985 19.218 2.027 0 3.641-.842 5.051-2.635 1.896-2.41 2.073-3.966 2.073-18.265 0-17.607.867-20.65 7.102-24.936 3.77-2.592 7.662-2.559 14.048.119l3.649 1.531.58 9.343c.319 5.139.927 14.743 1.351 21.343l.77 12h11l.864-12.5c1.565-22.62-1.855-37.05-9.968-42.064-7.213-4.458-19.721-3.156-27.84 2.898l-3.906 2.912-4.575-3.27c-7.409-5.294-14.99-6.667-22.338-4.046m101.763-.532c-9.024 1.614-15.72 7.018-19.889 16.051-1.64 3.552-2.102 6.526-2.106 13.551-.004 8.104.289 9.531 2.949 14.333 3.238 5.845 6.642 9.118 12.93 12.432 3.32 1.751 5.855 2.176 13.116 2.202 8.036.03 9.643-.288 15-2.967 6.41-3.205 7.898-6.019 5.526-10.451-1.46-2.728-4.687-2.609-12.218.451-3.384 1.375-7.584 2.5-9.333 2.5-3.902 0-9.165-3.417-12.201-7.922-4.112-6.101-4.175-6.077 15.976-6.089 10.038-.006 19.988-.298 22.112-.649l3.863-.638-.678-5.988c-1.397-12.352-7.134-21.597-15.547-25.055-4.402-1.809-14.256-2.699-19.5-1.761m70.989.966c-3.306.948-6.555 2.059-7.221 2.47-.665.411-2.55.054-4.189-.793S761.344 509 759.2 509h-3.9l-.551 27.25c-.404 19.987-.244 27.446.6 27.985 1.9 1.213 9.473.858 10.342-.485.445-.687 1.034-8.675 1.309-17.75.559-18.451 1.755-22.66 7.42-26.114 3.456-2.108 6.424-2.335 11.626-.89 7.229 2.009 7.102 1.648 7.988 22.597.941 22.257 1.622 24.65 6.892 24.206 2.821-.237 3.855-.917 4.982-3.279 2.08-4.359 2.515-15.705 1.159-30.24-1.465-15.707-2.836-18.311-12.277-23.314-4.474-2.37-9.282-2.399-17.301-.102m112.011-1.183c-8.551 1.92-14.5 5.94-14.5 9.797 0 1.265.788 3.257 1.75 4.426l1.75 2.126 5.407-2.071c2.974-1.139 7.667-2.499 10.428-3.022 4.489-.852 5.26-.727 7.287 1.178 1.247 1.171 2.719 3.425 3.271 5.008.847 2.429.739 2.884-.695 2.921-10.584.271-22.355 1.996-25.871 3.789-8.054 4.109-11.251 10.52-9.863 19.777.54 3.6 1.626 5.532 5.01 8.916 5.034 5.035 9.915 6.243 19.89 4.924 3.375-.446 10.186-.9 15.136-1.009l9-.197.32-16.872c.421-22.26-.792-29.575-5.727-34.512-5.005-5.008-14.086-7.089-22.593-5.179m-400 1.462c-1.65.534-6.712.717-11.25.408l-8.25-.563V565l4.75-.015c2.613-.009 5.29-.359 5.95-.778.804-.512 1.41-6.028 1.837-16.735.351-8.785 1.085-17.439 1.632-19.233 1.237-4.059 5.674-7.509 13.945-10.841 7.443-2.999 8.153-3.539 7.364-5.595-1.323-3.447-9.394-4.791-15.978-2.66m24.907 1.358c-.901 1.376-1.988 5.686-2.416 9.578-.834 7.598.344 26.736 2.031 33.002 1.24 4.605 5.079 9.389 9.347 11.647 4.221 2.234 15.58 2.185 22.324-.095 4.341-1.468 6.133-1.582 10.933-.694 3.158.583 6.334 1.061 7.058 1.061 1.056 0 1.316-5.431 1.316-27.521v-27.522l-2.479-1.129c-1.67-.761-3.545-.825-5.75-.195-3.058.874-3.313 1.29-3.922 6.401-.358 3.006-.697 11.091-.754 17.966-.087 10.597-.405 12.996-2.09 15.759-2.448 4.016-7.532 7.232-11.439 7.237-3.737.005-11.176-3.563-12.075-5.792-.378-.937-.927-9.579-1.22-19.204-.606-19.911-1.449-23-6.274-23-2.045 0-3.454.768-4.59 2.501m191.998 9.348c-3.787 1.77-8.405 7.275-8.405 10.019 0 .792 4.501 1.132 15 1.132 16.404 0 16.493-.039 13.044-5.696-4.008-6.573-12.313-8.88-19.639-5.455m183.87 20.079c-10.183 2.555-12.344 11.056-3.727 14.657 6.162 2.574 12.579 1.323 16.586-3.233 6.215-7.065-1.812-14.196-12.859-11.424m80.024 11.575c-2.383 1.669-4.655 7.407-3.807 9.616.669 1.744 3.946 3.86 7.602 4.908 3.732 1.07 6.583-1.112 7.915-6.059 1.327-4.929.195-7.353-4.137-8.863-4.142-1.444-5.009-1.398-7.573.398"/></svg>

<svg xmlns="http://www.w3.org/2000/svg" width="100%" height="100%" viewBox="38.47 439.13 963.39 160.42" version="1.1">
	<path d="M 186.719 449.284 L 178.938 456.352 171.074 452.162 C 159.103 445.784, 150.179 443.761, 134 443.761 C 110.441 443.761, 95.321 449.707, 79.990 465 C 65.500 479.454, 59.214 493.492, 58.273 513.500 C 57.441 531.180, 60.537 545.866, 67.549 557.512 C 71.500 564.073, 71.827 563.033, 62.786 572.663 C 59.604 576.053, 57 579.214, 57 579.687 C 57 580.160, 60.603 584.129, 65.008 588.508 L 73.015 596.468 80.581 588.903 L 88.147 581.337 97.824 586.183 C 111.754 593.159, 117.703 594.497, 134.500 594.430 C 146.943 594.380, 149.390 594.075, 156.500 591.692 C 169.525 587.326, 178.457 581.771, 188.164 572.001 C 195.642 564.474, 197.512 561.857, 201.823 552.890 C 204.570 547.175, 207.421 540.025, 208.159 537 C 210.140 528.877, 209.828 507.109, 207.616 499.058 C 205.564 491.589, 201.066 481.306, 197.919 476.886 L 195.732 473.814 203.590 465.909 C 211.336 458.118, 211.421 457.978, 209.474 456.181 C 208.388 455.178, 204.575 451.625, 201 448.287 L 194.500 442.217 186.719 449.284 M 117.500 450.973 C 113.650 451.997, 108.752 453.579, 106.615 454.488 C 93.670 459.993, 78.276 474.238, 71.654 486.839 C 61.219 506.697, 61.394 530.496, 72.126 551.125 L 76.315 559.177 124.658 510.842 C 151.246 484.258, 173 462.219, 173 461.865 C 173 460.400, 156.508 452.792, 149.377 450.968 C 139.568 448.460, 126.938 448.462, 117.500 450.973 M 935.712 477.622 C 935.320 478.013, 935 497.833, 935 521.667 L 935 565 939.809 565 C 948.515 565, 948.001 568.129, 947.204 520 L 946.500 477.500 941.462 477.205 C 938.690 477.043, 936.103 477.230, 935.712 477.622 M 142.182 527.312 C 104.751 564.754, 94.162 575.882, 95.182 576.706 C 98.346 579.258, 111.462 585.121, 118.159 586.977 C 127.089 589.451, 139.738 589.637, 148.356 587.419 C 162.879 583.681, 178.530 573.865, 187.796 562.684 C 192.984 556.423, 199.413 543.698, 201.529 535.500 C 204.012 525.886, 204.423 514.561, 202.602 506 C 201.135 499.106, 195.113 484.944, 191.861 480.740 C 190.625 479.142, 186.050 483.432, 142.182 527.312 M 264 522.548 L 264 565.095 270.250 564.798 L 276.500 564.500 276.761 522.250 L 277.022 480 270.511 480 L 264 480 264 522.548 M 428.975 491.565 C 428.439 492.976, 427.997 495.113, 427.994 496.315 C 427.984 500.266, 425.847 506.443, 423.340 509.764 L 420.877 513.028 422.935 515.645 C 426.022 519.569, 427.112 524.971, 427.973 540.609 C 428.835 556.274, 430.459 561.068, 436.012 564.348 C 444.665 569.460, 458.069 565.557, 455.435 558.692 C 455.100 557.818, 452.502 556.363, 449.663 555.460 C 446.823 554.556, 443.488 552.708, 442.250 551.352 C 440.136 549.038, 440 548.022, 440 534.569 L 440 520.250 443.125 519.625 C 444.844 519.281, 447.753 519, 449.590 519 C 453.255 519, 455 516.944, 455 512.625 C 455 509.431, 454.428 509.119, 447.187 508.362 L 441.205 507.736 440.521 501.348 C 440.018 496.656, 439.170 494.168, 437.329 491.980 C 434.120 488.165, 430.339 487.978, 428.975 491.565 M 830.779 491.959 C 828.835 493.488, 828.161 495.148, 827.710 499.519 C 827.305 503.449, 826.159 506.635, 823.868 510.205 L 820.605 515.291 824.302 518.396 L 828 521.500 828.010 536 C 828.019 549.142, 828.240 550.968, 830.377 555.500 C 833.940 563.054, 836.894 565.292, 843.977 565.805 C 847.250 566.041, 851.094 565.942, 852.519 565.584 C 854.855 564.998, 855.081 564.525, 854.806 560.816 C 854.514 556.884, 854.297 556.637, 850 555.341 C 841.766 552.856, 841.813 552.959, 840.974 535.788 C 840.564 527.379, 840.326 520.389, 840.445 520.252 C 840.564 520.116, 843.459 519.712, 846.877 519.355 C 851.562 518.865, 853.451 518.194, 854.546 516.630 C 857.939 511.787, 855.796 509.277, 847.373 508.226 L 841.500 507.493 840.800 501.147 C 839.662 490.836, 836.219 487.680, 830.779 491.959 M 322.718 508.037 C 320.637 508.557, 317.600 509.673, 315.968 510.517 C 313.291 511.901, 312.700 511.896, 309.944 510.471 C 308.167 509.552, 305.132 509.018, 302.694 509.195 L 298.500 509.500 298.233 536.431 C 298.027 557.309, 298.251 563.542, 299.233 564.165 C 300.861 565.199, 308.732 565.243, 309.362 564.223 C 309.627 563.795, 310.170 555.881, 310.569 546.636 C 311.401 527.350, 312.778 522.958, 319.039 519.605 C 323.870 517.019, 331.215 518.061, 335.027 521.874 C 337.728 524.574, 337.730 524.587, 338.468 544.788 L 339.206 565 343.521 565 C 351.399 565, 351.003 566.110, 350.978 544.143 C 350.958 526.537, 350.745 524.033, 348.916 520 C 346.566 514.816, 343.633 511.399, 339.836 509.424 C 336.295 507.581, 327.420 506.863, 322.718 508.037 M 379.637 508.404 C 371.684 511.364, 366.060 520.174, 367.436 527.513 C 368.660 534.033, 374.165 538.227, 387.126 542.512 C 393.382 544.581, 398.673 546.422, 398.885 546.604 C 399.096 546.787, 398.695 548.322, 397.994 550.015 C 395.413 556.246, 388.057 557.379, 379.882 552.805 C 376.421 550.868, 376.111 550.853, 372.710 552.467 C 370.754 553.395, 368.885 554.858, 368.555 555.718 C 367.652 558.071, 370.518 561.703, 375.265 564.220 C 381.283 567.411, 393.696 567.422, 399.692 564.242 C 405.043 561.404, 409.033 556.170, 409.714 551.098 C 410.440 545.682, 409.524 542.666, 405.895 538.533 C 403.383 535.672, 401.021 534.475, 393.003 532.001 C 381.498 528.451, 378.220 526.325, 379.774 523.422 C 380.347 522.353, 381.686 520.689, 382.751 519.726 C 384.600 518.052, 385.082 518.088, 393.588 520.553 L 402.489 523.133 404.744 520.511 C 407.578 517.217, 407.576 515.890, 404.736 513.222 C 399.383 508.193, 386.729 505.764, 379.637 508.404 M 604.737 508.430 C 602.667 509.169, 599.976 510.436, 598.756 511.246 C 596.775 512.561, 596.269 512.531, 594.019 510.963 C 592.634 509.997, 590.129 508.965, 588.453 508.669 C 582.507 507.620, 582.540 507.479, 582.146 535.805 L 581.786 561.687 584.585 563.888 C 588.357 566.855, 591.124 566.252, 593.248 562 C 594.676 559.142, 594.997 555.787, 594.998 543.700 C 595 527.893, 595.534 525.625, 600.307 521.168 C 603.975 517.742, 609.521 517.372, 615 520.188 C 619.418 522.458, 619.512 522.609, 620.141 528.500 C 620.494 531.800, 620.832 540.027, 620.891 546.782 C 621.024 561.750, 622.347 566, 626.876 566 C 628.903 566, 630.517 565.158, 631.927 563.365 C 633.823 560.955, 634 559.399, 634 545.100 C 634 527.493, 634.867 524.450, 641.102 520.164 C 644.872 517.572, 648.764 517.605, 655.150 520.283 L 658.799 521.814 659.379 531.157 C 659.698 536.296, 660.306 545.900, 660.730 552.500 L 661.500 564.500 667 564.500 L 672.500 564.500 673.364 552 C 674.929 529.380, 671.509 514.950, 663.396 509.936 C 656.183 505.478, 643.675 506.780, 635.556 512.834 L 631.650 515.746 627.075 512.476 C 619.666 507.182, 612.085 505.809, 604.737 508.430 M 706.500 507.898 C 697.476 509.512, 690.780 514.916, 686.611 523.949 C 684.971 527.501, 684.509 530.475, 684.505 537.500 C 684.501 545.604, 684.794 547.031, 687.454 551.833 C 690.692 557.678, 694.096 560.951, 700.384 564.265 C 703.704 566.016, 706.239 566.441, 713.500 566.467 C 721.536 566.497, 723.143 566.179, 728.500 563.500 C 734.910 560.295, 736.398 557.481, 734.026 553.049 C 732.566 550.321, 729.339 550.440, 721.808 553.500 C 718.424 554.875, 714.224 556, 712.475 556 C 708.573 556, 703.310 552.583, 700.274 548.078 C 696.162 541.977, 696.099 542.001, 716.250 541.989 C 726.288 541.983, 736.238 541.691, 738.362 541.340 L 742.225 540.702 741.547 534.714 C 740.150 522.362, 734.413 513.117, 726 509.659 C 721.598 507.850, 711.744 506.960, 706.500 507.898 M 777.489 508.864 C 774.183 509.812, 770.934 510.923, 770.268 511.334 C 769.603 511.745, 767.718 511.388, 766.079 510.541 C 764.440 509.693, 761.344 509, 759.200 509 L 755.300 509 754.749 536.250 C 754.345 556.237, 754.505 563.696, 755.349 564.235 C 757.249 565.448, 764.822 565.093, 765.691 563.750 C 766.136 563.063, 766.725 555.075, 767 546 C 767.559 527.549, 768.755 523.340, 774.420 519.886 C 777.876 517.778, 780.844 517.551, 786.046 518.996 C 793.275 521.005, 793.148 520.644, 794.034 541.593 C 794.975 563.850, 795.656 566.243, 800.926 565.799 C 803.747 565.562, 804.781 564.882, 805.908 562.520 C 807.988 558.161, 808.423 546.815, 807.067 532.280 C 805.602 516.573, 804.231 513.969, 794.790 508.966 C 790.316 506.596, 785.508 506.567, 777.489 508.864 M 889.500 507.681 C 880.949 509.601, 875 513.621, 875 517.478 C 875 518.743, 875.788 520.735, 876.750 521.904 L 878.500 524.030 883.907 521.959 C 886.881 520.820, 891.574 519.460, 894.335 518.937 C 898.824 518.085, 899.595 518.210, 901.622 520.115 C 902.869 521.286, 904.341 523.540, 904.893 525.123 C 905.740 527.552, 905.632 528.007, 904.198 528.044 C 893.614 528.315, 881.843 530.040, 878.327 531.833 C 870.273 535.942, 867.076 542.353, 868.464 551.610 C 869.004 555.210, 870.090 557.142, 873.474 560.526 C 878.508 565.561, 883.389 566.769, 893.364 565.450 C 896.739 565.004, 903.550 564.550, 908.500 564.441 L 917.500 564.244 917.820 547.372 C 918.241 525.112, 917.028 517.797, 912.093 512.860 C 907.088 507.852, 898.007 505.771, 889.500 507.681 M 489.500 509.143 C 487.850 509.677, 482.788 509.860, 478.250 509.551 L 470 508.988 470 536.994 L 470 565 474.750 564.985 C 477.363 564.976, 480.040 564.626, 480.700 564.207 C 481.504 563.695, 482.110 558.179, 482.537 547.472 C 482.888 538.687, 483.622 530.033, 484.169 528.239 C 485.406 524.180, 489.843 520.730, 498.114 517.398 C 505.557 514.399, 506.267 513.859, 505.478 511.803 C 504.155 508.356, 496.084 507.012, 489.500 509.143 M 514.407 510.501 C 513.506 511.877, 512.419 516.187, 511.991 520.079 C 511.157 527.677, 512.335 546.815, 514.022 553.081 C 515.262 557.686, 519.101 562.470, 523.369 564.728 C 527.590 566.962, 538.949 566.913, 545.693 564.633 C 550.034 563.165, 551.826 563.051, 556.626 563.939 C 559.784 564.522, 562.960 565, 563.684 565 C 564.740 565, 565 559.569, 565 537.479 L 565 509.957 562.521 508.828 C 560.851 508.067, 558.976 508.003, 556.771 508.633 C 553.713 509.507, 553.458 509.923, 552.849 515.034 C 552.491 518.040, 552.152 526.125, 552.095 533 C 552.008 543.597, 551.690 545.996, 550.005 548.759 C 547.557 552.775, 542.473 555.991, 538.566 555.996 C 534.829 556.001, 527.390 552.433, 526.491 550.204 C 526.113 549.267, 525.564 540.625, 525.271 531 C 524.665 511.089, 523.822 508, 518.997 508 C 516.952 508, 515.543 508.768, 514.407 510.501 M 706.405 519.849 C 702.618 521.619, 698 527.124, 698 529.868 C 698 530.660, 702.501 531, 713 531 C 729.404 531, 729.493 530.961, 726.044 525.304 C 722.036 518.731, 713.731 516.424, 706.405 519.849 M 890.275 539.928 C 880.092 542.483, 877.931 550.984, 886.548 554.585 C 892.710 557.159, 899.127 555.908, 903.134 551.352 C 909.349 544.287, 901.322 537.156, 890.275 539.928 M 970.299 551.503 C 967.916 553.172, 965.644 558.910, 966.492 561.119 C 967.161 562.863, 970.438 564.979, 974.094 566.027 C 977.826 567.097, 980.677 564.915, 982.009 559.968 C 983.336 555.039, 982.204 552.615, 977.872 551.105 C 973.730 549.661, 972.863 549.707, 970.299 551.503" stroke="none" fill="#0a0a0a" fill-rule="evenodd"/>
</svg>
